X: 3
T: Kerry Reel 
T: Green Fields of Rosbeigh
M: 4/4
L: 1/8
R: Reel
K: Edor
dc|BE (3EDE BAFA|ABde fded|BE (3EDE BAFA|(3BcB AF E2 dc|
BE (3EDE BAFA|ABde fded|BE (3EDE BAFA|BFAF E2 :|
FA|(3Bcd ef g2fe|dB (3BAB dBAd|(3Bcd ef gfge|dBAF E2 ef|
gfga gfeg|fefg fedB|ABde fgfe|dBAF E2 :|
